X:25
T:The Shippard's Wife
C:"An auld Highland Air"
S:Petrie's Third Collection of Strathspey Reels and Country Dances &c.
Z:Steve Wyrick <sjwyrick'at'gmail'dot'com>, 7/30/05
N:Petrie's Third Collection, page 11
L:1/8
M:6/8
R:Air
K:Eb
"^Very slow"
B,|E2F G2A|\{G\}B2e d2c|c>de BAG|FGE DCB,|E2F G2A|B2e d2B|
c>de \{g\}fed|eeee2:|e/f/|g>ag fed|e>fe d2B|cde BAG|FGE DCB,|
g>ag f2b|e>fe d2g|c>de \{g\}fed|[e3B3G3]-[e2B2G2] e/f/|g>ag fed|e>fe d2B|
c>de BAG|FGE DCB,|E2F G2A|B2e edc|c>de fed|[eBG][eBG][eBG] [e2B2G2]|]
%in the last measure, the top note of the chords was written as a d -SW
